src/assets/icons/weeks,simple,27.svg

<svg width="48" height="48" viewBox="0 0 48 48" fill="none" xmlns="http://www.w3.org/2000/svg">
<rect opacity="0.2" x="5" y="5" width="38" height="38" rx="4" fill="black"/>
<path d="M5 13C5 9.22876 5 7.34315 6.17157 6.17157C7.34315 5 9.22876 5 13 5H35C38.7712 5 40.6569 5 41.8284 6.17157C43 7.34315 43 9.22876 43 13V15H5V13Z" fill="black"/>
<path d="M10.7195 38H23.1626V34.983H15.8331V34.8636L18.3814 32.3665C21.9695 29.0938 22.9325 27.4574 22.9325 25.4716C22.9325 22.446 20.4609 20.3068 16.7195 20.3068C13.0547 20.3068 10.5405 22.4972 10.549 25.9233H14.0518C14.0433 24.2528 15.1001 23.2301 16.6939 23.2301C18.228 23.2301 19.37 24.1847 19.37 25.7188C19.37 27.108 18.5178 28.0625 16.9325 29.5881L10.7195 35.3409V38ZM26.527 38H30.3366L37.581 23.6051V20.5455H25.3338V23.5625H33.7628V23.6818L26.527 38Z" fill="black"/>
</svg>

<svg xmlns="http://www.w3.org/2000/svg" width="48" height="48" fill="none" viewBox="0 0 48 48">
  <rect width="38" height="38" x="5" y="5" fill="#000" opacity=".2" rx="4"/>
  <path fill="#000" d="M5 13c0-3.771 0-5.657 1.172-6.828C7.343 5 9.229 5 13 5h22c3.771 0 5.657 0 6.828 1.172C43 7.343 43 9.229 43 13v2H5v-2zM10.72 38h12.443v-3.017h-7.33v-.12l2.548-2.496c3.588-3.273 4.552-4.91 4.552-6.895 0-3.026-2.472-5.165-6.213-5.165-3.665 0-6.18 2.19-6.171 5.616h3.503c-.009-1.67 1.048-2.693 2.642-2.693 1.534 0 2.676.955 2.676 2.489 0 1.389-.852 2.343-2.438 3.87L10.72 35.34V38zm15.807 0h3.81l7.244-14.395v-3.06H25.334v3.017h8.429v.12L26.527 38z"/>
</svg>
